X:108
T:En värs ur en gammal brudvisa.
S:Uppt. efter Rasmus Floström, Lojsta.
Q:"Raskt"
M:C|
L:1/8
K:F
F2 F F A2 A A|(cB) G2 F2 z C|
w:Bräu-di ha spyl-dä en läi--ten tar. Män
F2 F F A3 A|c c B A A2 HG2|
w:da ma däu trou, att käl-liŋ-gar fikk är-vä,
F A F A F A F A|F A F A c2 B A|A2 G2 z2 z2|
w:är-vä, är-vä, jun-tä, run-tä, kun-tä, jun-tä, kunt, fin-ti nai-jä~—
E G E G E G E G|E G E G B2 A G|G2 F2 z2 z2|]
w:är-vä, är-vä, jun-tä, run-tä, kun-tä, jun-tä, kunt, fin-ti nai-jä.
